X: 4
T: Richard Dwyer's
R: reel
M: 4/4
L: 1/8
K: Ador
|:A2 EA cdeg | dcBG AE E2| EAcA Bdgf | eaa^g a3g |
| e3d cA A2 | Bgdc BG G2 | AEcE dEcd| ecAG EA A2:||
| a2 ea ba a2| g2 dg bg g2 | aged cded | cABG EA A2 |
| a2 ea ba a2 | g3e dBGB | A2 (3Bcd eaaf | gedB eA A2:||


Tune 1131	Setting 1131

